!SVG/adobe_animate.svg

<!-- Generated by IcoMoon.io -->
<svg version="1.1" xmlns="http://www.w3.org/2000/svg" width="32" height="32" viewBox="0 0 32 32">
<title>adobe_animate</title>
<path d="M5.2 5.5v21.1h21.6v-21.1h-21.6zM25.9 25.6h-19.8v-19.2h19.8v19.2z"></path>
<path d="M17.4 20.1c0 0.1 0 0.1 0.1 0.1h1.5c0.1 0 0.1 0 0.1-0.1v-5.8c0.3-0.1 0.6-0.2 1-0.2 0.9 0 1.2 0.5 1.2 1.3v4.6c0 0.1 0 0.1 0.1 0.1h1.3c0.1 0 0.1 0 0.1-0.1v-4.7c0-2.2-1.4-2.7-2.7-2.7-1 0-2 0.3-2.8 0.6-0.1 0-0.1 0-0.1 0.1 0 0.5 0 0.8 0 0.9v5.9z"></path>
<path d="M9 20.2h1.3c0.1 0 0.1 0 0.1-0.1l0.7-2.7h2.9l0.7 2.7c0 0.1 0.1 0.1 0.1 0.1h1.5c0.1 0 0.1 0 0.1-0.1l-2.9-9.7c0-0.1 0-0.1-0.1-0.1h-1.9c0 0-0.1 0-0.1 0.1 0 0.4 0 0.5-0.1 0.7l-2.3 8.9c-0.1 0.1 0 0.2 0 0.2zM12.7 11.7v0c0.2 1.1 0.8 3.2 1.1 4.2h-2.1c0.3-1.4 0.8-3.2 1-4.2z"></path>
</svg>

<?xml version="1.0" encoding="utf-8"?>
<!-- Generator: Adobe Illustrator 22.0.1, SVG Export Plug-In . SVG Version: 6.00 Build 0)  -->
<svg version="1.1" id="Layer_1" xmlns="http://www.w3.org/2000/svg" xmlns:xlink="http://www.w3.org/1999/xlink" x="0px" y="0px"
	 viewBox="0 0 32 32" style="enable-background:new 0 0 32 32;" xml:space="preserve">
<title>angular</title>
<g>
	<path d="M5.2,5.5v21.1h21.6V5.5H5.2z M25.9,25.6H6.1V6.4h19.8V25.6z"/>
	<path d="M17.4,20.1c0,0.1,0,0.1,0.1,0.1H19c0.1,0,0.1,0,0.1-0.1v-5.8c0.3-0.1,0.6-0.2,1-0.2c0.9,0,1.2,0.5,1.2,1.3V20
		c0,0.1,0,0.1,0.1,0.1h1.3c0.1,0,0.1,0,0.1-0.1v-4.7c0-2.2-1.4-2.7-2.7-2.7c-1,0-2,0.3-2.8,0.6c-0.1,0-0.1,0-0.1,0.1
		c0,0.5,0,0.8,0,0.9V20.1z"/>
	<path d="M9,20.2h1.3c0.1,0,0.1,0,0.1-0.1l0.7-2.7h2.9l0.7,2.7c0,0.1,0.1,0.1,0.1,0.1h1.5c0.1,0,0.1,0,0.1-0.1l-2.9-9.7
		c0-0.1,0-0.1-0.1-0.1h-1.9c0,0-0.1,0-0.1,0.1c0,0.4,0,0.5-0.1,0.7L9,20C8.9,20.1,9,20.2,9,20.2z M12.7,11.7L12.7,11.7
		c0.2,1.1,0.8,3.2,1.1,4.2h-2.1C12,14.5,12.5,12.7,12.7,11.7z"/>
</g>
</svg>
